X: 163
T:Tailor's Thimble, The
M:C|
R:reel
H:Also in Edor, #572
Z:Henrik Norbeck
K:Ador
cAAG A2dB|cA~A2 dBGB|cAAG ABcd|1 e2ge dBGB:|2 e2ge dega||
|:b2gb abga|bage dega|1 b2gb abgd|efge dega:|2 b2gb abgd|efge dBGB||
<end>
<start>
